X: 28963
T: Nancy's Fiddle
R: reel
M: 4/4
K: Dmajor
|:A,2 CE D2 FA|d2 fd eA A2|efge fgaf|gece dBAF|
A,2 CE D2 FA|defd eA A2|efge fgaf|gecd ed d2:|
|:d2 ad bdad|d2 ad bdad|=c2 g=c a=cg=c|=c2 g=c a=cg=c|
d2 ad bdad|d2 ad bdad|cdef g2 af|gecd ed d2:|

